src/app/assets/svg/products.svg

<?xml version="1.0" encoding="UTF-8"?>
<svg width="24px" height="24px" viewBox="0 0 24 24" version="1.1" xmlns="http://www.w3.org/2000/svg" xmlns:xlink="http://www.w3.org/1999/xlink">
    <!-- Generator: Sketch 55.2 (78181) - https://sketchapp.com -->
    <title>Icon / 24px / box-full-regular</title>
    <desc>Created with Sketch.</desc>
    <g id="Icon-/-24px-/-box-full-regular" stroke="none" stroke-width="1" fill-rule="evenodd">
        <path d="M21.9469579,11.4945398 L20.3400936,8.28705146 C20.2152887,8.03432135 19.9625585,7.99063961 19.8190328,8.00936035 L18.2371295,8.21216847 L18.9266771,6.32137283 C19.0421217,6.00936034 19.0265211,5.66926674 18.8861155,5.36661463 C18.7457099,5.06396252 18.4960999,4.83619341 18.1809673,4.72074879 L16.449298,4.08736345 C15.8034322,3.85023397 15.0858034,4.18720745 14.848674,4.83307329 L13.8845554,7.48205926 C13.4196568,5.49453975 11.6474259,4.01248046 9.51950077,4.01248046 C7.17004678,4.01248046 5.26365051,5.82215286 5.06396252,8.11856472 L4.20904832,8.00936035 C4.06552258,7.99063961 3.8159126,8.03744148 3.68798748,8.28705146 L2.08424332,11.4945398 C1.94071758,11.7815913 2.09360369,12.124805 2.39937593,12.2121685 L4.02808108,12.6770671 L4.02808108,17.2730109 C4.02808108,17.7316693 4.34009357,18.1310453 4.78315129,18.2402496 L11.5288612,19.9282372 C11.9531981,20.0343214 12.3088924,19.975039 12.4960998,19.9282372 L19.24805,18.2402496 C19.6911077,18.1279251 20.0031202,17.7285492 20.0031202,17.2730109 L20.0031202,12.6770671 L21.6287052,12.2121685 C21.9375976,12.124805 22.0873635,11.7815913 21.9469579,11.4945398 Z M16.1716069,5.58190324 L17.4352574,6.04056159 L16.5678627,8.42433696 L15.0639626,8.61466457 L16.1716069,5.58190324 Z M3.95631821,11.1014041 L4.71450854,9.58502339 L9.54446177,10.199688 L8.25897034,12.3307332 L3.95631821,11.1014041 L3.95631821,11.1014041 Z M11.2667707,18.3182528 L5.525741,16.8829953 L5.525741,13.1045242 L8.57722307,13.975039 C8.82683306,14.0468019 9.05148204,13.9188768 9.15444616,13.7472699 L11.2667707,10.2464899 L11.2667707,18.3182528 Z M12.4711388,8.9453978 L12.0156006,9.00468017 L6.54290169,8.30889234 C6.64898593,6.74882993 7.93447736,5.51014037 9.51950077,5.51014037 C11.1700468,5.51014037 12.5148206,6.85491417 12.5148206,8.5054602 C12.5148206,8.65522619 12.4929797,8.80187206 12.4711388,8.9453978 L12.4711388,8.9453978 Z M18.5054603,16.8829953 L12.7644306,18.3182528 L12.7644306,10.2464899 L14.8767551,13.75039 C14.9797192,13.9219969 15.2074883,14.049922 15.4539782,13.9781591 L18.5054603,13.1076443 L18.5054603,16.8829953 L18.5054603,16.8829953 Z M15.7691108,12.3307332 L14.4836194,10.199688 L19.3166927,9.58502339 L20.074883,11.1014041 L15.7691108,12.3307332 L15.7691108,12.3307332 Z" id="box-full-regular"></path>
    </g>
</svg>

<svg xmlns="http://www.w3.org/2000/svg" width="24" height="24"><defs/><path fill-rule="evenodd" d="M21.947 11.495L20.34 8.287a.507.507 0 00-.521-.278l-1.582.203.69-1.89c.115-.313.1-.653-.04-.955-.141-.303-.39-.53-.706-.646l-1.732-.634a1.25 1.25 0 00-1.6.746l-.964 2.65a4.486 4.486 0 00-4.365-3.47c-2.35 0-4.256 1.81-4.456 4.106l-.855-.11a.514.514 0 00-.521.278l-1.604 3.208c-.143.287.01.63.315.717l1.63.465v4.596c0 .459.311.858.754.967l6.746 1.688c.424.106.78.047.967 0l6.752-1.688a1 1 0 00.755-.967v-4.596l1.626-.465a.51.51 0 00.318-.717zm-5.775-5.913l1.263.459-.867 2.383-1.504.19 1.108-3.032zm-12.216 5.52l.759-1.517 4.83.615-1.286 2.13-4.303-1.229zm7.31 7.216l-5.74-1.435v-3.778l3.051.87a.51.51 0 00.577-.228l2.113-3.5v8.071zm1.205-9.373l-.455.06-5.473-.696C6.649 6.749 7.934 5.51 9.52 5.51a3 3 0 012.995 2.995c0 .15-.022.297-.044.44zm6.034 7.938l-5.74 1.435v-8.072l2.112 3.504c.103.172.33.3.577.228l3.051-.87v3.775zm-2.736-4.552L14.484 10.2l4.833-.615.758 1.516-4.306 1.23z"/></svg>
